X: 3101
T: MISS CLEMENTINA DRUMMOND
Q:"Strathspey."
R: Strathspey.
%R:strathspey
B: James Kerr "Merry Melodies" v.3 p.13 #101
Z: 2016 John Chambers <jc:trillian.mit.edu>
M: C
L: 1/16
K: A
(ued) |\
(vcA3) uA3uc vB3vGuE3ue | (cA3) A3c df3 Bd3 |\
ce3 Ac3 B3GE3f | e3c edcB A4-A2ue2 |\
(cA3) A3c B3GE3ue | (cA3) A3c df3 Bd3 |
ce3 Ac3 B3GE3f | e3c edcB A4-A2 |]\
(fg) |\
agfe a3e cA3 A2(Bc) | d3cB3A GE3 E2(fg) |\
agfe a3e ce3 fa3 |
g3eB3^d e4-e2(fg) |\
agfe a3e cA3 A2(Bc) | d3cB3A GE3 E3d |\
ce3 fa3 gb3 a3g | f3ef3g a4-a2 |]

%%sep 1 1 500
%%sep 1 1 500

